images/behnace-logo.svg

<svg xmlns="http://www.w3.org/2000/svg" viewBox="-305 397 504 504" enable-background="new -305 397 504 504"><style type="text/css">.st0{fill:#FFFFFF;}</style><path d="M83.6 865h-274.3c-43.8 0-79.4-35.5-79.4-79.4v-273.2c0-43.8 35.5-79.4 79.4-79.4h274.3c43.8 0 79.4 35.5 79.4 79.4v273.3c0 43.8-35.5 79.3-79.4 79.3z"/><path class="st0" d="M-.2 559.2h90.6v27h-90.6zM47.8 601.7c-85.1 0-85 85-85 85s-5.8 84.6 85 84.6c0 0 75.7 4.3 75.7-58.8h-39s1.3 23.7-35.5 23.7c0 0-39 2.6-39-38.5h114.6c.2.1 12.7-96-76.8-96zm34.6 66.5h-72.6s4.7-34.1 39-34.1c34 .1 33.6 34.1 33.6 34.1zM-87.4 646.5s33.7-2.5 33.7-42.1c0-39.5-27.6-58.9-62.6-58.9h-115.1v221.2h115.1s70.3 2.2 70.3-65.3c.1 0 3.2-54.9-41.4-54.9zm-93.2-61.7h64.3s15.6 0 15.6 23.1-9.2 26.4-19.6 26.4h-60.4l.1-49.5zm61.4 142.6h-61.3v-59.1h64.3s23.4-.3 23.4 30.4c-.1 25.5-17.2 28.4-26.4 28.7z"/></svg>

<?xml version="1.0" encoding="utf-8"?>
<!-- Generator: Adobe Illustrator 19.1.0, SVG Export Plug-In . SVG Version: 6.00 Build 0)  -->
<svg version="1.1" id="Layer_1" xmlns="http://www.w3.org/2000/svg" xmlns:xlink="http://www.w3.org/1999/xlink" x="0px" y="0px"
	 viewBox="-305 397 504 504" style="enable-background:new -305 397 504 504;" xml:space="preserve">
<style type="text/css">
	.st0{fill:#FFFFFF;}
</style>
<path d="M83.6,865h-274.3c-43.8,0-79.4-35.5-79.4-79.4V512.4c0-43.8,35.5-79.4,79.4-79.4H83.6c43.8,0,79.4,35.5,79.4,79.4v273.3
	C163,829.5,127.5,865,83.6,865z"/>
<rect x="-0.2" y="559.2" class="st0" width="90.6" height="27"/>
<path class="st0" d="M47.8,601.7c-85.1,0-85,85-85,85s-5.8,84.6,85,84.6c0,0,75.7,4.3,75.7-58.8h-39c0,0,1.3,23.7-35.5,23.7
	c0,0-39,2.6-39-38.5h114.6C124.8,697.8,137.3,601.7,47.8,601.7z M82.4,668.2H9.8c0,0,4.7-34.1,39-34.1
	C82.8,634.2,82.4,668.2,82.4,668.2z"/>
<path class="st0" d="M-87.4,646.5c0,0,33.7-2.5,33.7-42.1c0-39.5-27.6-58.9-62.6-58.9h-115.1v221.2h115.1c0,0,70.3,2.2,70.3-65.3
	C-45.9,701.4-42.8,646.5-87.4,646.5z M-180.6,584.8h64.3c0,0,15.6,0,15.6,23.1s-9.2,26.4-19.6,26.4h-60.4L-180.6,584.8L-180.6,584.8
	z M-119.2,727.4h-61.3v-59.1h64.3c0,0,23.4-0.3,23.4,30.4C-92.9,724.2-110,727.1-119.2,727.4z"/>
</svg>
